X:412
%%etbk:tnset id:121,pos:2,rep:3x,ant:
%%etbk:wsite http://www.thesession.org/tunes/display/4824
%%etbk:pldat 2015-07-11T16:35,2014-06-15T12:57,2014-04-27T13:07,2014-02-06T18:46,2013-05-01T17:56
Z: Piano Box Version by Martin Fleischmann
H: Created 2013-02-19 /  Last Modified 2013-02-19
T: O'Keeffe's
M: 2/4
L: 1/8
R: polka
K: Gmaj
|: !1!G>!2!A !3!B!4!d | !3!e!4!f !5!g2 | !3!e!2!d !1!B!2!d | !3!e/f/e/d/ !1!B!2!d |
!1!G>A B!4!d | !3!ef !5!g2 | !3!ed !1!B!2!A | !1!G4 :||
!5!g>f ed | !3!ef g2 | !3!ed !1!Bd | !3!e/f/e/d/ !1!Bd |
!5!g>f ed | !3!ef g2 | !3!ed !1!B!2!A |!1!G4 :||


